svg/color/cix.svg

<svg height="32" viewBox="0 0 32 32" width="32" xmlns="http://www.w3.org/2000/svg"><g fill="none" fill-rule="nonzero"><circle cx="16" cy="16" fill="#0576b4" r="16"/><g fill="#fff" transform="translate(7 8)"><path d="m17.6677122 10.8630181-1.0585693-.6632959 2.3100597-.0269305.0473688-.026125v.0255728l.9545715-.0111284-1.6188572 2.6352778-.1453553-1.2695141-7.3640733 4.0620141-2.79142853-3.7283333-7.83285714 4.125v-.9402778l8.07371428-4.2519445 2.79171429 3.7283334zm-10.11199791-.90524032-3.06028572 1.61166662v-10.92555551h3.06028572zm8.65371431.48138892-3.0602857 1.7002777v-11.49555551h3.0602857z"/><path d="m11.8825714 12.8427778-.6565714.3647222-2.404-3.21083333v-8.10305556h3.0605714zm-8.65371426-.6063889-3.06028571 1.6116667v-10.53638893h3.06028571z" opacity=".5"/></g></g></svg>

<svg xmlns="http://www.w3.org/2000/svg" width="32" height="32" viewBox="0 0 32 32">
  <g fill="none" fill-rule="evenodd">
    <circle cx="16" cy="16" r="16" fill="#0576B4" fill-rule="nonzero"/>
    <g fill="#FFF" fill-rule="nonzero" transform="translate(7 8)">
      <path d="M17.6677122,10.8630181 L16.6091429,10.1997222 L18.9192026,10.1727917 L18.9665714,10.1466667 L18.9665714,10.1722395 L19.9211429,10.1611111 L18.3022857,12.7963889 L18.1569304,11.5268748 L10.7928571,15.5888889 L8.00142857,11.8605556 L0.168571429,15.9855556 L0.168571429,15.0452778 L8.24228571,10.7933333 L11.034,14.5216667 L17.6677122,10.8630181 Z M7.55571429,9.95777778 L4.49542857,11.5694444 L4.49542857,0.643888889 L7.55571429,0.643888889 L7.55571429,9.95777778 Z M16.2094286,10.4391667 L13.1491429,12.1394444 L13.1491429,0.643888889 L16.2094286,0.643888889 L16.2094286,10.4391667 Z"/>
      <path d="M11.8825714,12.8427778 L11.226,13.2075 L8.822,9.99666667 L8.822,1.89361111 L11.8825714,1.89361111 L11.8825714,12.8427778 Z M3.22885714,12.2363889 L0.168571429,13.8480556 L0.168571429,3.31166667 L3.22885714,3.31166667 L3.22885714,12.2363889 Z" opacity=".5"/>
    </g>
  </g>
</svg>
